CONST robtarget myPath0{10} := [
[[1318.7,71.5,938.01],[0.00139266,-0.491072,0.870802,-0.0234724],[0,-1,-1,0],[9E+09,9E+09,9E+09,9E+09,9E+09,9E+09]],
[[1317.7,73.5,938.01],[0.00139266,-0.491072,0.870802,-0.0234724],[0,-1,-1,0],[9E+09,9E+09,9E+09,9E+09,9E+09,9E+09]],
[[1285.7,63,938.01],[0.00139266,-0.491072,0.870802,-0.0234724],[0,-1,-1,0],[9E+09,9E+09,9E+09,9E+09,9E+09,9E+09]],
[[1284.2,63.5,938.01],[0.00139266,-0.491072,0.870802,-0.0234724],[0,-1,-1,0],[9E+09,9E+09,9E+09,9E+09,9E+09,9E+09]],
[[1279.7,90.5,938.01],[0.00139266,-0.491072,0.870802,-0.0234724],[0,-1,-1,0],[9E+09,9E+09,9E+09,9E+09,9E+09,9E+09]],
[[1286.2,118.5,938.01],[0.00139266,-0.491072,0.870802,-0.0234724],[0,-1,-1,0],[9E+09,9E+09,9E+09,9E+09,9E+09,9E+09]],
[[1326.7,121,938.01],[0.00139266,-0.491072,0.870802,-0.0234724],[0,-1,-1,0],[9E+09,9E+09,9E+09,9E+09,9E+09,9E+09]],
[[1345.2,119.5,938.01],[0.00139266,-0.491072,0.870802,-0.0234724],[0,-1,-1,0],[9E+09,9E+09,9E+09,9E+09,9E+09,9E+09]],
[[1356.2,104.5,938.01],[0.00139266,-0.491072,0.870802,-0.0234724],[0,-1,-1,0],[9E+09,9E+09,9E+09,9E+09,9E+09,9E+09]],
[[1388.2,68.5,938.01],[0.00139266,-0.491072,0.870802,-0.0234724],[0,-1,-1,0],[9E+09,9E+09,9E+09,9E+09,9E+09,9E+09]]
];
CONST robtarget myPath1{0} := [

];
CONST robtarget myPath2{0} := [

];
CONST robtarget myPath3{6} := [
[[1353.2,103,938.01],[0.00139266,-0.491072,0.870802,-0.0234724],[0,-1,-1,0],[9E+09,9E+09,9E+09,9E+09,9E+09,9E+09]],
[[1346.7,100.5,938.01],[0.00139266,-0.491072,0.870802,-0.0234724],[0,-1,-1,0],[9E+09,9E+09,9E+09,9E+09,9E+09,9E+09]],
[[1339.7,100.5,938.01],[0.00139266,-0.491072,0.870802,-0.0234724],[0,-1,-1,0],[9E+09,9E+09,9E+09,9E+09,9E+09,9E+09]],
[[1343.2,113.5,938.01],[0.00139266,-0.491072,0.870802,-0.0234724],[0,-1,-1,0],[9E+09,9E+09,9E+09,9E+09,9E+09,9E+09]],
[[1320.2,109.5,938.01],[0.00139266,-0.491072,0.870802,-0.0234724],[0,-1,-1,0],[9E+09,9E+09,9E+09,9E+09,9E+09,9E+09]],
[[1305.7,95,938.01],[0.00139266,-0.491072,0.870802,-0.0234724],[0,-1,-1,0],[9E+09,9E+09,9E+09,9E+09,9E+09,9E+09]]
];
CONST robtarget myPath4{0} := [

];
CONST robtarget myPath5{2} := [
[[1284.2,63.5,938.01],[0.00139266,-0.491072,0.870802,-0.0234724],[0,-1,-1,0],[9E+09,9E+09,9E+09,9E+09,9E+09,9E+09]],
[[1286.7,80.5,938.01],[0.00139266,-0.491072,0.870802,-0.0234724],[0,-1,-1,0],[9E+09,9E+09,9E+09,9E+09,9E+09,9E+09]]
];
CONST robtarget myPath6{0} := [

];
CONST robtarget myPath7{2} := [
[[1318.7,71.5,938.01],[0.00139266,-0.491072,0.870802,-0.0234724],[0,-1,-1,0],[9E+09,9E+09,9E+09,9E+09,9E+09,9E+09]],
[[1315.2,10.5,938.01],[0.00139266,-0.491072,0.870802,-0.0234724],[0,-1,-1,0],[9E+09,9E+09,9E+09,9E+09,9E+09,9E+09]]
];
CONST robtarget myPath8{2} := [
[[1388.2,29,938.01],[0.00139266,-0.491072,0.870802,-0.0234724],[0,-1,-1,0],[9E+09,9E+09,9E+09,9E+09,9E+09,9E+09]],
[[1390.7,65.5,938.01],[0.00139266,-0.491072,0.870802,-0.0234724],[0,-1,-1,0],[9E+09,9E+09,9E+09,9E+09,9E+09,9E+09]]
];
CONST robtarget myPath9{1} := [
[[1369.7,67,938.01],[0.00139266,-0.491072,0.870802,-0.0234724],[0,-1,-1,0],[9E+09,9E+09,9E+09,9E+09,9E+09,9E+09]]
];
CONST robtarget myPath10{0} := [

];
CONST robtarget myPath11{1} := [
[[1368.7,30,938.01],[0.00139266,-0.491072,0.870802,-0.0234724],[0,-1,-1,0],[9E+09,9E+09,9E+09,9E+09,9E+09,9E+09]]
];
CONST robtarget myPath12{1} := [
[[1361.2,41.5,938.01],[0.00139266,-0.491072,0.870802,-0.0234724],[0,-1,-1,0],[9E+09,9E+09,9E+09,9E+09,9E+09,9E+09]]
];
